X: 1
T: Roamin' in the Gloamin'
M: C|
L: 1/4
K: G
d \
| "G"ed- dB/B/ | AG- GG/A/ | BB "C"GE | "D"D4 \
| "G"GG FG | "Em"ed ^cd | "A7"eA AB | "D7"A2 d>d ||
||"G"ed dB | G2 AB | "C"d_d cA | "(Am)"E4 \
| "D7"FF ED | Fe dB | A4 | "G"G2 |]
